!!!OTL: No_26_Third_Song_of_the_Mî'nîsîno'wuck.krn
!!!REG: Great_Lakes
!!!LANG: Non-Tone
!!!LING_GROUP: Algonquin
!!!SOCIAL_FUNCTION: songs of war
**kern
*staff1
=1-
*clefG2
*k[f#c#]
*M3/4
2f#/
8a/L
8a/J
=2
4f#/
2f#/
=3
4f#/
4e/
4d/
=4
4d/
2d/
=5
2B/
8B/L
8B/J
=6
4B/
2B/
=7
4B/
4B/
4B/
=8
2.B/
=9
2d/
8d/L
8d/J
=10
4B/
2B/
=11
4B/
4B/
4B/
=12
2.B/
*clefF4
=13
2F#\
8F#\L
8F#\J
=14
4F#\
2F#\
=15
4F#\
4E\
4D\
=16
2.D\
==
*-
